core/img/actions/unshare.svg

<svg width="16" height="16" version="1.1" viewBox="0 0 16 16" xmlns="http://www.w3.org/2000/svg"><path d="m12.5 1a2.5 2.5 0 0 0-2.5 2.5 2.5 2.5 0 0 0 0.003906 0.12891l-4.9023 2.4512a2.5 2.5 0 0 0-1.6016-0.58008 2.5 2.5 0 0 0-2.5 2.5 2.5 2.5 0 0 0 2.5 2.5 2.5 2.5 0 0 0 0.30469-0.021484l3.4395-1.7246-1.25-0.625a2.5 2.5 0 0 0 0.0058594-0.12891 2.5 2.5 0 0 0-0.0039062-0.12891l4.9023-2.4512a2.5 2.5 0 0 0 1.6016 0.58008 2.5 2.5 0 0 0 0.26562-0.013672l1.5625-0.7832a2.5 2.5 0 0 0 0.67188-1.7031 2.5 2.5 0 0 0-2.5-2.5zm0.25391 9.0156-3.7246 1.8672 0.97656 0.48828a2.5 2.5 0 0 0-0.005859 0.12891 2.5 2.5 0 0 0 2.5 2.5 2.5 2.5 0 0 0 2.5-2.5 2.5 2.5 0 0 0-2.2461-2.4844z"/><rect transform="rotate(-26.63)" x="-1.0586" y="11.891" width="11.687" height="2.0029" ry="0" style="paint-order:normal"/></svg>

<svg xmlns="http://www.w3.org/2000/svg" width="16" height="16"><path d="M12.5 1A2.5 2.5 0 0 0 10 3.5a2.5 2.5 0 0 0 .004.129L5.102 6.08A2.5 2.5 0 0 0 3.5 5.5 2.5 2.5 0 0 0 1 8a2.5 2.5 0 0 0 2.5 2.5 2.5 2.5 0 0 0 .305-.021l3.44-1.725-1.25-.625A2.5 2.5 0 0 0 6 8a2.5 2.5 0 0 0-.004-.129l4.902-2.451A2.5 2.5 0 0 0 12.5 6a2.5 2.5 0 0 0 .266-.014l1.562-.783A2.5 2.5 0 0 0 15 3.5 2.5 2.5 0 0 0 12.5 1zm.254 9.016-3.725 1.867.977.488A2.5 2.5 0 0 0 10 12.5a2.5 2.5 0 0 0 2.5 2.5 2.5 2.5 0 0 0 2.5-2.5 2.5 2.5 0 0 0-2.246-2.484z"/><rect width="11.687" height="2.003" x="-1.059" y="11.891" ry="0" style="paint-order:normal" transform="rotate(-26.63)"/></svg>
